!!!ONB: MCCC : IWM0407_02 : Extracted Monophonic Melody
!!!COM: Mozart, Wolfgang Amadeus
!!!OPR: Piano Sonata No.7
!!!OMV: 2
!!!SCT: K.309 ; K⁶.284b ; Op.4 No.1
!!!ODT: 1777///
**kern
*thru
*staff1
*clefG2
*k[b-]
*F:
*M3/4
*MM60
=1
16.a
32f
16.b-
32g
8.cc
16a
8f
8r
=2
16.dd
32b-
16.ee
32cc
8.ff
16cc
8a
8r
=3
16.ff
32cc
16.gg
32ee
16.aa
32gg
16.ff
32ee
16.ff
32cc
16.dd
32a
=4
8cc
8b-
8a
8r
16a
16b-
16b
16cc
=5
8.f
32g
32f
8e
16r
16ee
16gg
16ff
16ee
16dd
=6
8.cc
32dd
32cc
8b
16r
16b-
16bb-
16gg
16ff
16ee
=7
32ff
32gg
32ff
32gg
32aa
32bb-
32aa
32bb-
8ccc
16r
16cc
16ee
16dd
16cc
16b-
=8
8.a
32b-
32a
4g
4r
=9
16.a
32f
16.b-
32g
8.cc
16a
8f
8r
=10
16.dd
32b-
16.ee
32cc
8.ff
16cc
8a
8r
=11
16.ccc
32aa
16.bb-
32gg
16.aa
32ff
16.gg
32ee
16.ff
32cc
16.dd
32a
=12
8cc
8b-
8a
8r
16a
16b-
16b
16cc
=13
8.f
32g
32f
8e
16r
16ee
16gg
16ff
16ee
16dd
=14
16cc
16b
8b-
8r
16r
16g
8.a
16b-
=15
8.cc
16dd
8f
8r
16a
16g
16f
16g
=16
4g
8f
8c
8A
8c
=17
16.a
32f
16.b-
32g
8.cc
16a
8f
8r
=18
16.dd
32b-
16.ee
32cc
8.ff
16cc
8a
8r
=19
16.ff
32cc
16.gg
32ee
16.aa
32gg
16.ff
32ee
16.dd
32cc
16.b-
32a
=20
16cc
16b
16cc
16b-
8a
8r
32a
32b-
32a
32b-
32b
32cc
32b
32cc
=21
8.f
32g
32f
8e
16r
16ee
32gg
32ff
32ee
32ff
32gg
32ff
32ee
32dd
=22
8.cc
32dd
32cc
8b
16r
16b-
32bb-
32aa
32bb-
32aa
32bb-
32gg
32ff
32ee
=23
16.ff
32gg
16.aa
32bb-
16ccc
16ff
16ee
16ee-
16dd
16dd-
16cc
16b-
=24
8.a
32b-
32a
4g
4r
=25
32a
32g
32a
32f
32b-
32a
32b-
32g
[8cc
32cc]
32b
32cc
32a
8f
8r
=26
32dd
32cc
32dd
32b-
32ee
32dd
32ee
32cc
[8ff
32ff]
32ee
32ff
32cc
8a
8r
=27
32ccc
32bb
32ccc
32aa
32bb-
32aa
32bb-
32gg
32aa
32gg
32aa
32ff
32gg
32ff
32gg
32ee
32ff
32gg
32aa
32ee
32ff
32cc
32dd
32a
=28
16.cc
32b-
16.gg
32b-
8a
8r
24a
24b-
24b
24cc
24cc#
24dd
=29
8.f
32g
32f
8e
16r
16ee
24gg
24ff#
24ff
24ee
24ee-
24dd
=30
24cc
24b
24gg
8b-
8r
16r
16G
32A
32B-
32A
32G
32A
32B-
32A
32B-
=31
32c
32d
32c
32B-
32c
32d
32c
32d
8F
8r
16A
16G
16F
16G
=32
4G
8F
8r
4r
=33
16e
16g
16cc
16ee
[4gg
8.gg]
16aa
=34
4cc
8b
8r
16b
16dd
16ff
16bb
=35
8.ddd
16bb
16fff
16ddd
16bb
16gg
16ff#
16gg
16aa
16ff
=36
4dd#
8ee
8r
16cc
16ee
16gg
16ccc
=37
16ccc
16dd
[8dd
16dd]
16ccc
16ee-
16ccc
16cc
16ee
16gg
16ccc
=38
16ccc
16ff
[8ff
16ff]
16ccc
16ff#
16ccc
16cc
16ee
16gg
16bb-
=39
16gg#
16aa
16ff
16dd
4cc
8.dd
16cc
=40
[2cc
8cc]
8cc#
=41
4dd
8.dd
32ee
32ff#
8gg
8dd
=42
[4cc
8.cc]
32dd
32ee
8ff
8cc
=43
[4b-
8b-]
16cc
16b-
8a
16cc
16b-
=44
4a
8g
4.r
=45
32a
16.f
32b-
16.g
8.cc
48b-
48a
48g
8f
8r
=46
32dd
16.b-
32ee
16.cc
8.ff
64ee
64dd
64cc
64b-
8a
8r
=47
32ff
16.cc
32aa
16.ff
32ccc
16.gg#
32aa
16.ee
32ff
16.cc
32dd
16.a
=48
32cc
16.b
32cc
16.b-
8a
8r
16aa
16bb-
16bb
16ccc
=49
8.ff
32gg
32ff
8ee
16r
16ee
16gg
16ff
16ee
16dd
=50
16cc
16b
8b-
8r
16r
16gg
16.ccc
32aa
16.bb-
32ee
=51
16.ff
32cc
16.dd
32f
8f
8r
16a
16g
16f
16g
=52
4g
8f
8r
4r
=53
32e
32g
32f
32e
32f
32g
32a
32b
32cc
32dd
32cc
32b
32cc
32dd
32ee
32ff
32gg
32aa
32gg
32ff#
32gg
32aa
32gg
32aa
=54
8.cc
32dd
32cc
8b
8r
16r
16b
16dd
16ff
=55
16.bb
32ff
16.ddd
32bb
32fff
32eee
32ddd
32eee
32ddd
32ccc
32bb
32ccc
32bb
32ccc
32ddd
32ccc
32bb
32aa
32gg
32ff
=56
16dd#
16ee
16ff
16ee
8ee
8r
32cc
32dd
32ee
32ff
32gg
32aa
32bb
32ccc
=57
16ccc
16dd
[8dd
16.dd]
32ccc
16.ee-
32ccc
32cc
32dd
32ee
32ff
32gg
32aa
32bb
32ccc
=58
16ccc
16ff
[8ff
16.ff]
32ccc
16.ff#
32ccc
32cc
32dd
32ee
32ff
32gg
32aa
32bb
32ccc
=59
32gg#
32aa
32bb
32aa
32gg
32ff
32ee
32dd
4cc
8.dd
16cc
=60
[2cc
8cc]
8cc#
=61
[4dd
8.dd]
32ee
32ff#
16gg
16aa
16bb-
16dd
=62
4cc
8.cc
32dd
32ee
16ff
16gg
16aa
16cc
=63
[4b-
8b-]
16dd
16cc
16b-
16a
16cc
16b-
=64
8a
32g
32a
32b-
32a
8g
8r
4r
=65
32b-
32a
32g#
32a
32cc
32b-
32a
32b-
[8cc
32cc]
32a
32cc
32a
8f
8r
=66
32ee
32dd
32cc#
32dd
32ff
32ee
32dd
32ee
[8ff
32ff]
32cc
32ff
32cc
8a
8r
=67
32gg
32ff
32ee
32ff
32aa
32gg
32ff#
32gg
32aa
32bb-
32ccc
32bb-
32aa
32gg
32ff
32ee
32ff
32gg
32aa
32ee
32ff
32cc
32dd
32a
=68
32cc
32b
32a
32b
32cc
32b-
32a
32b-
8a
8r
4r
=69
16cc
16cc
16cc
16cc
16cc
16cc
16cc
16cc
16cc
16cc
16cc
16cc
=70
16cc
16dd
8ee
8r
8ff
8r
8dd
=71
8r
8cc
8r
8f
16a
16g
16f
16g
=72
8g
8g#
8a
8r
32a
32aa
32b-
32bb-
32b
32bb
32cc
32ccc
=73
8.ff
32gg
32ff
8ee
16r
32ee
32eee
32ff
32fff
32ee
32eee
32ff
32fff
32dd
32ddd
=74
32cc
32ccc
32b
32bb
32b-
32bb-
16r
8r
16r
16gg
24ccc
24aa
24ff
24bb-
24gg
24ee
=75
24ff
24cc
24a
24dd
24b-
24g
8f
8r
16a
16g
16f
16g
=76
16f
16cc
16b
16b-
16a
16a-
16g
16f
16a
16g
16f
16g
=77
16f
16cc
16b
16b-
16a
16a-
16g
16f
16a
16g
16f
16g
=78
8f
4c
8A
8G
8B-
=79
2B-
8A/
8r
==
*-
